usr/share/icons/biglinux-icons-material/24/actions/headphones.svg

<svg xmlns="http://www.w3.org/2000/svg" width="24" height="24"><path d="M11 3a8 8 0 0 0-8 8v8h1v-2l2 2h1v-6H6l-2 2v-4a7 7 0 0 1 7-7 7 7 0 0 1 7 7v4l-2-2h-1v6h1l2-2v2h1v-8a8 8 0 0 0-8-8z" style="fill:currentColor;fill-opacity:1;stroke:none;color:#dedede" transform="translate(1 1)"/></svg>

<svg xmlns="http://www.w3.org/2000/svg" viewBox="0 0 24 24" width="24" height="24">
  <defs id="defs3051">
    <style type="text/css" id="current-color-scheme">
      .ColorScheme-Text {
        color:#363636;
      }
      </style>
  </defs>
  <g transform="translate(1,1)">
    <path style="fill:currentColor;fill-opacity:1;stroke:none" d="M 11 3 A 8 8 0 0 0 3 11 L 3 19 L 4 19 L 4 17 L 6 19 L 7 19 L 7 13 L 6 13 L 4 15 L 4 11 A 7 7 0 0 1 11 4 A 7 7 0 0 1 18 11 L 18 15 L 16 13 L 15 13 L 15 19 L 16 19 L 18 17 L 18 19 L 19 19 L 19 11 A 8 8 0 0 0 11 3 z " class="ColorScheme-Text"/>
  </g>
</svg>
